!!!!SEGMENT: pl-wtm--iii-41-976--001-005_kurpinski-karol-kazimierz--wesele-w-ojcowie-marsz.krn
!!!cenid: 18xx:4257
!!!COM: Kurpiński, Karol Kazimierz
!!!COM-rismID: pe30018952
!!!CDT: 1785/03/06-1857/09/18
!!!CNT: Polish
!!!GTL: Wesele w Ojcowie
!!!OTL: Marsz
!!!OMV: 005
!!!PDT:
!!!AGN:
!!!SMS-siglum: PL-Wtm
!!!SMS-shelfmark: III.41.976
!!!SMS-shelfwork: 001-005 G
!!!SMS-variant:
!!!SMS-altvar:
!!!NIFC-rismSourceID: 1001130735
!!!NIFC-rismChildID: 1001130735
!!!NIFC-islandoraID: pl-wtm:23143
!!!URL-pdf-islandora: https://repozytorium.nifc.pl/islandora/object/pl-wtm:23143/datastream/PDF/view
!!!URL-scan: https://polish.musicsources.pl/pl/lokalizacje/galeria/druki-muzyczne/17811/6 @EN{Scan on Polish Music Sources Website} @PL{Skany w portalu Dziedzictwo Muzyki Polskiej w otwartym dostępie}
!!!IIIF:
!!!ONB-nifc: UWAGA: skan 6
!!!AIN: 2 piano
!!!key: D
**kern	**kern	**dynam
*part2	*part1	*part1
*staff2	*staff1	*
*I"Piano	*I"Piano	*
*I'pf	*I'pf	*
*ICklav	*ICklav	*
*Ipiano	*Ipiano	*
*clefF4	*clefG2	*
*k[f#c#]	*k[f#c#]	*
*D:	*D:	*
*M2/4	*M2/4	*
=1	=1	=1
2DD/ 2AA 2D	4d\ 4f# 4a 4dd	f
.	8.d\L 8.f# 8.a 8.dd	.
.	16d\Jk 16f# 16a 16dd	.
=2	=2	=2
2DD/ 2AA 2D	4.d\ 4.f# 4.a 4.dd	.
.	8a\ 8ee	.
=3	=3	=3
2DD/ 2AA 2D	8a\L 8dd 8ff#	.
.	8a\ 8cc# 8ee	.
.	8a\ 8dd 8ff#	.
.	8a\J 8ee 8gg	.
=4	=4	=4
2DD/ 2AA 2D	4.a\ 4.cc# 4.ee	.
.	8a\ 8dd 8ff#	.
!!LO:LB:g=original	!	!
=5	=5	=5
2DD/ 2AA 2D	8a\L 8ee 8gg	.
.	8a\ 8dd 8ff#	.
.	8a\ 8ee 8gg	.
.	8a\J 8ff# 8aa	.
=6	=6	=6
2DD/ 2AA 2D	8a\L 8dd 8ff#	.
.	8a\ 8ff# 8aa	.
.	8a\ 8ee 8gg	.
.	8a\J 8dd 8ff#	.
=7	=7	=7
4AA\ 4A	4a\ 4cc# 4ee	.
8.AA\L 8.A	8.a\L 8.cc# 8.ee	.
16AA\Jk 16A	16a\Jk 16cc# 16ee	.
=8	=8	=8
4AA\ 4A	4a\ 4cc# 4ee	.
4AAA/ 4AA	4a\ 4cc# 4ee 4aa	.
=9!|:	=9!|:	=9!|:
2DD/ 2AA 2D	(8a\L 8ff# 8aa	p
.	8ee\ 8gg#X	.
.	8ff#\ 8aa	.
.	8ggn\J) 8bb	.
=10	=10	=10
2DD/ 2AA 2D	(8dd\L 8ff#	<
.	8ee\J) 8gg#X	.
.	4ff#^\ 4aa	[[
!!LO:LB:g=original	!	!
=11	=11	=11
2DD/ 2AA 2D	(8a\L 8ff# 8aa	.
.	8ee\ 8gg#X	.
.	8ff#\ 8aa	.
.	8ggn\J) 8bb	.
=12	=12	=12
2DD/ 2AA 2D	(8dd\L 8ff#	.
.	8ee\J) 8gg#X	.
.	4ff#^\ 4aa	.
=13	=13	=13
2DD/ 2AA 2D	(8a\L 8ff# 8aa	.
.	8ee\ 8ggn	.
.	8dd\ 8ff#	.
.	8a\J) 8ee	.
=14	=14	=14
2DD/ 2AA 2D	(8f#\L 8dd	.
.	8a\ 8ee	.
.	8dd\ 8ff#	.
.	8ee\J) 8gg	.
=15	=15	=15
4AA\ 4A	4a\ 4dd 4ff#	.
!	!LO:TX:t=[segno]	!
4AAA/ 4AA	4g\ 4a 4cc# 4ee	.
=16	=16	=16
2DD/ 2D	2d/ 2f# 2a 2dd	.
=:|!	=:|!	=:|!
*-	*-	*-
!!!system-decoration: {(s1,s2)}
!!!ENC: Berenika Jozajtis
!!!END: 2022-11-26
!!!ENC: Natalia Wrzos
!!!END: 2022-12-06
!!!YEC: Copyright 2022 Narodowy Instytut Fryderyka Chopina (https://polishscores.org)
!!!YEM: License CC-BY-4.0 (https://creativecommons.org/licenses/by/4.0)
